X: 1
T: Nothing at all          E.
C: Ignatius Sancho 1775
%R: reel
B: "Minuets Cotillons & Country Dances", 1775 p.11 #1
S: https://www.bl.uk/collection-items/minuets-cotillons-and-country-dances-by-ignatius-sancho#
Z: 2020 John Chambers <jc:trillian.mit.edu>
M: C
L: 1/8
K: Bb
% - - - - - - - - - - - - - - - - - - - - - - - - - - - - -
V: 1 brace=2 % staves=2
V: 2 clef=bass middle=d
% - - - - - - - - - - - - - - - - - - - - - - - - - - - - -
[V:1] |: b2fd cdec | dBcA BFED | b2fd cdec | dBcA B2B,2 :: fgfd gabg | fdcB cAGF |
[V:2] |: B2b2 a2f2 | b2f2 B4 | b2B2 a2f2 | b2f2 b2B2 :: B2B2 B2B2 | B2d2 f2F2 |
[V:1] fgfd gabg | fdec B2B,2 :: EBGB EBGB | AcAc BFDB, | EBGB EBGB | ABcA B2B,2 :|
[V:2] B2B2 B2B2 | B2f2 B4 :: e2e2 g2g2 | f2f2 B4 | g2g2 e2e2 | f2f2 B4 :|
% - - - - - - - - - - - - - - - - - - - - - - - - - - - - -
%%begintext align
%% The First and Second Cu. foot it Right and Left half round .| the same back again :| Lead
%% down two Cu. .|. up again and cast off :|: Hands round four at Bottom .||. Right & Left at top :||:
%%endtext

%%sep 1 1 500
%%sep 1 1 500

